symbols/web/landslide/materialsymbolsoutlined/landslide_wght500gradN25_20px.svg

<svg xmlns="http://www.w3.org/2000/svg" height="20" width="20"><path d="M1.417 18.583h16.958l-5.125-6.854-4.208-1.708-2.48-3.313H1.417Zm1.791-1.791v-1.271l1.646.541 7.479-2.479 2.459 3.209Zm1.646-2.604-1.646-.542v-1.563l1.646.542 3.208-1.063 1.938.917Zm10.646-2.5 3.771-1.667V6.646l-3.792-.854-2.083 1.687v2.542Zm-10.646-.959-1.646-.521V8.521h2.459l1.229 1.541Zm10.917-1.125-.583-.458v-.792l.75-.604 1.541.333v.75Zm-5.729-2.916 4.146-1.646V.875L10.042.042l-2.48 1.666v3.313Zm.208-1.98-.938-.625V2.646l1.105-.729 2.021.416v1.5Z"/></svg>

<svg xmlns="http://www.w3.org/2000/svg" height="20" width="20"><path d="M1.417 18.583H18.375L13.25 11.729L9.042 10.021L6.562 6.708H1.417ZM3.208 16.792V15.521L4.854 16.062L12.333 13.583L14.792 16.792ZM4.854 14.188 3.208 13.646V12.083L4.854 12.625L8.062 11.562L10 12.479ZM15.5 11.688 19.271 10.021V6.646L15.479 5.792L13.396 7.479V10.021ZM4.854 10.729 3.208 10.208V8.521H5.667L6.896 10.062ZM15.771 9.604 15.188 9.146V8.354L15.938 7.75L17.479 8.083V8.833ZM10.042 6.688 14.188 5.042V0.875L10.042 0.042L7.562 1.708V5.021ZM10.25 4.708 9.312 4.083V2.646L10.417 1.917L12.438 2.333V3.833Z"/></svg>
